X: 8
T: Jackson's Morning Brush
R: jig
M: 6/8
L: 1/8
K: Dmaj
AG|:~F3 ~E3 | DFA AFA | BAB def | gfg e2A | F2d E2d | DFA AFA | BAB d2e |1 fec d2A :|2 fec d2e |
|: fed dfa | fdf ~a3 | ABc def | ~g3 e2g |1 fed dfa | fdf ~a3 |
ABc d2e | fec d2e :|2 fed edc | dcB AFE | DFA d2e | fec d2e |
|: fed faf | gbg e2g | fed faf | ~g3 e2g | fed faf | gbg eag | fed eag | fec d2e :|
|:f2d edc | dcB AFE | DFA def | ~g3 e2g | fed edc | dcB AFE | DFA d2e |1 fec d2e :|2 fec d |


Tune 2699	Setting 15937

